X:1
T:GLORIA
T:GLORIA
T:Mass of Eternal Bliss
T:Composition: Fr Emmanuel Chemo                                                                                   Transcription: Beri Sela Diocese of Buea                                                                                                                                     selagatien@gmail.com
T:Douala 2019
T:Douala 2019
T:Douala 2019
T:Douala 2019
T:Douala 2019
T:Douala 2019
C:Composition: Fr Emmanuel Chemo       Transcription: Beri Sela                     Diocese of Buea                   selagatien@gmail.com
Z:Douala 2019
%%score [ 1 2 3 4 ]
L:1/8
Q:1/4=165
M:3/4
K:G
V:1 treble nm="Soprano" snm="S."
V:2 treble nm="Alto" snm="A."
V:3 treble-8 nm="Tenor" snm="T."
V:4 bass nm="Bass" snm="B."
V:1
|:S"^Chorus" z4 | z6 | z6 | z6 | z6 | z6 | z6 | z6 | z2 | z B2 d c2- | c2 c3 e- | e c2 A G2- | %12
w: |||||||||Glo- ry eh|_ e- eh|_ Glo- ry eh-|
w: ||||||||||||
 G4 d2- | d d3 d2 | d4- d2- | d c2 d- dA | B4 (dg-) | g(d =f2) e2 | c2 c4- | c A2 A G2 | G4 d2- | %21
w: * in|* ex- cel-|sis _|_ De- * o _|_ Et *|* in * te-|rra pax|_ ho- mi- ni-|bus bo-|
w: |||||||||
 d B3 c2 | A2 F4- | F A3 G2- | G6 :|"^Verses""^A" z (G2 F) E2 | E4 Ec- | c A3 G2- | G4- GD- | %29
w: * nae vo-|lun- ta-|* tis eh|_|1.We _ praise|You we _|_ bless You|_ _ We|
w: ||||2.Lo- rd Go-|d Hea- *|ven- ly King|_ _ Al-|
 D G2 B A2 | F4- FD- | D A2 G B2 | B4- BG- | G G2 F (E2 | c4) ce- | e (c2 A) G2 | G4 d2- | %37
w: _ a- dore You|eh _ We|* glo- ri- fy|You * We|* give You tha-|nks fo- r|* Yo- ur glo-|ry, give|
w: migh- ty Go- *|d * and|_ _ _ Fa-|ther * Lo-|rd Je- sus Chri-|st on- ly|* be- go- tten-|Son Lord|
 d B3 c2 | A2 F4- | F A2 A G2- | G6!D.S.! |"^B" z4 B2- | B A2 G2 F | E6 | (E c2) A3 | G4 B2- | %46
w: * You thanks|for Your|_ glo- ry eh|.|3.You|_ take a- way|eh|o- f the|world Have-|
w: * God Lamb|of god|Son of the Fa-|ther.||||||
 B A2 G2 A | F6- | F3 (A2 G) | B2- B2 B2- | B A2 G2 F | E6 | (E c2) A3 | G4 B2- | B (A2 G2) A | %55
w: * ve mer- cy|eh|_ o- n|us * You|_ take a- way|eh|o- f the|world Re-|* cei- * ve|
w: |||||||||
 F6- | F3 A2 G | B4 B2- | BA G3 F | E2 E2 E2 | E c2 A3 | G2 G4 | d3 B3 | c2 A2 F2- | F F2 A3 | %65
w: eh.|_ our pra-|yers. You|_ are sea- ted|at the right|hand of the|Fa- ther.|Have mer-|cy mer- cy|* on us|
w: ||||||||||
 G6- | G2!D.S.! |"^C" z4 B2- | B A2 G2 F | E6 | (E c2) A2 A | G4 B2- | B A2 G2 A | F6- | F3 A2 G | %75
w: eh||4.For|_ You a- lone|eh|are the Ho- ly|One For|_ You a- lone|eh|_ are the|
w: ||||||||||
 B4 B2- | B A2 G2 F | E6 | (E c2) A3 | G6 | d3 B3 | c2 A2 F2 | F F2 A3 | G4 B2- | B A2 G2 F | E6 | %86
w: Lord For|_ You a- lone|eh|are the Most|High|Je- sus|Christ with the|Ho- ly Spi-|rit In|_ the glo- ry|eh|
w: |||||||||||
 (E c2) A3 | G4 B2- | B A2 G2 A | F6- | F3 A2 G | B2 B2 B2- | B A2 G2 F | E6 | (E c2) A3 | G6 | %96
w: the _ Fa-|ther In|_ the glo- ry|eh|_ of the|Fa- ther In|_ the glo- ry|eh|the _ Fa-|ther|
w: ||||||||||
 d3 B3 | c2 A2 F2- | F F2 A3 | G6- | G2!D.S.! |] %101
w: A- men|A- a- a-|* a- a-|men.-||
w: |||||
V:2
|: z4 | z6 | z6 | z6 | z6 | z6 | z6 | z6 | z2 | z G2 B A2- | A6- | A F2 F E2- | E4 B2- | B B3 B2 | %14
w: |||||||||Glo- ry eh|_|* Glo- ry eh-|* in|* ex- cel-|
w: ||||||||||||||
 A4- A2- | A A2 B- BF | G6- | G6- | G6- | G6- | G4 d2- | d G3 A2 | F2 F4- | F E3 D2- | D6 :| z6 | %26
w: sis _|_ De- * o _|_||||* bo-|* nae vo-|lun- ta-|* tis eh|_||
w: ||||||||||||
 z6 | z6 | z6 | z6 | z6 | z6 | z6 | z6 | z6 | z6 | z4 d2- | d G3 A2 | F2 F4- | F E2 E D2- | D6 | %41
w: ||||||||||1.give|* You thanks|for Your|* glo- ry eh|.|
w: ||||||||||2.Lord|* God Lamb|of God|Son of the Fa-|ther.|
 z4 z2 | z6 | E2 c4 | (E c2) A3 | G4 z2 | z6 | F2 F4- | F3 (A2 G) | B4 z2 | z6 | E2 c4 | %52
w: ||3.The sins|o- f the|world||mer- cy|_ o- n|us||The sins|
w: |||||||||||
 (E c2) A3 | G4 z2 | z6 | F2 F4- | F3 A2 G | B4 z2 | z6 | E2 E2 E2 | E c2 A3 | G2 G4 | d3 G3 | %63
w: o- f the|world||re- ceive|* our pra-|yers.||at the right|hand of the|Fa- ther.|Have mer-|
w: |||||||||||
 A2 F2 F2- | F E2 E3 | D6- | D2 | z6 | z6 | E6 | (E c2) A2 A | G4 z2 | z6 | F6- | F3 A2 G | G4 z2 | %76
w: cy mer- cy|* on us|eh||||eh|are the Ho- ly|One||eh|* are the|Lord|
w: |||||||||||||
 z6 | E6 | (E c2) A3 | G4 z2 | d3 G3 | A2 F2 F2 | F E2 E3 | D4 z2 | z2 z4 | E6 | ((E c2)) A3 | %87
w: |eh|are the Most|High|Je- sus|Christ with the|Ho- ly Spi-|rit-||eh|the _ Fa-|
w: |||||||||||
 G4 z2 | z6 | F6- | F3 A2 G | G2 G2 z2 | z6 | E6 | ((((E c2)))) A3 | G4 z2 | d3 G3 | A2 F2 F2- | %98
w: ther||eh|* of the|Fa- ther||eh|the _ Fa-|ther|A- men|A- a- a-|
w: |||||||||||
 F E2 E3 | D6- | D2 |] %101
w: * a- a-|men.||
w: |||
V:3
|: z4 | z2 z2 ce- | e2- e4- | e4 dd- | d6- | d6- | d6 | (d3 B c2 | d2) | z c2 f e2- | e6- | %11
w: |e- eh|_ _|* e- eh|_|||o _ _|_|Glo- ry eh|_|
w: |||||||||||
 e c2 c B2- | B4 d2- | d d3 f2 | f4- f2- | f e2 f- fd | d2 e2 =f2- | f6- | f2 (c e2) e- | e6- | %20
w: * Glo- ry eh-|* in|* ex- cel-|sis _|_ De- * o _|_ _ O|_|* ter- * ra|_|
w: |||||||||
 e4 B2- | B d3 e2 | c2 A4- | A c3 B2- | B6 :| z (B2 B) c2 | c4 ce- | e c3 B2- | B4- BB- | %29
w: * bo-|* nae vo-|lun- ta-|* tis eh|_|* * praise|You we _|_ bless You|_ _ We|
w: |||||* rd Go-|d Hea- *|ven- ly King|_ _ Al-|
 B d2 d e2 | d4- dd- | d c2 B d2 | d4- dB- | B B2 d (c2 | e4) ee- | e (c2 c) B2 | B4 B2- | %37
w: _ a- dore You|eh _ We|* glo- ri- fy|You * We|* give You tha-|nks fo- r|* Yo- ur glo-|ry, 1.give|
w: migh- ty Go- *|d * and|_ _ _ Fa-|ther * Lo-|rd Je- sus Chri-|st on- ly|* be- go- tten-|Son 2.Lord|
 B d3 e2 | c2 A4- | A c2 c B2- | B6 | z6 | z6 | c2 c4 | (c e2) c3 | B4 z2 | z6 | d2 d4- | %48
w: * You thanks|for Your|* glo- ry eh|.|||3.The sins|o- f the|world||mer- cy|
w: * God Lamb|of God|Son of the Fa-|ther.||||||||
 d3 (d2 B-) | B2 c2 z2 | z6 | c2 c4 | (c e2) c3 | B4 z2 | z6 | d2 d4- | d3 d2 B | c4 z2 | z6 | %59
w: _ o- n|||The sins|o- f the|world||re- ceive|* our pra-|yers.||
w: |||||||||||
 E2 E2 E2 | E c2 A3 | G2 G4 | B3 d3 | e2 c2 A2- | A A2 c3 | B6- | B2 | z6 | z6 | c6 | (c e2) c2 c | %71
w: at the right|hand of the|Fa- ther.|Have mer-|cy mer- cy|* * us|eh|_|||eh|are the Ho- ly|
w: ||||||||||||
 B4 z2 | z6 | d6- | d3 d2 B | d4 z2 | z6 | c6 | (c e2) c3 | B4 z2 | B3 d3 | e2 c2 A2 | A A2 c3 | %83
w: One||eh|* are the|Lord||eh|are the Most|High|Je- sus|Christ with the|Ho- ly Spi-|
w: ||||||||||||
 B4 z2 | z2 z4 | c6 | ((c e2)) c3 | B4 z2 | z6 | d6- | d3 d2 B | d2 d2 z2 | z6 | c6 | %94
w: rit-||eh|the _ Fa-|ther||eh|* of the|Fa- ther||eh|
w: |||||||||||
 ((((c e2)))) c3 | B4 z2 | B3 d3 | e2 c2 A2- | A A2 c3 | B6- | B2 |] %101
w: the _ Fa-|ther|A- men|A- a- a-|* a- a-|men.||
w: |||||||
V:4
|: z G,,2 G,, | C,2 C,4- | C,3 C,2 C, | G,,2 G,,4 | G,,3 B,,3 | D,2 D,4- | D,3 D,3 | (G,3 D, B,,2 | %8
w: Glo- ry|glo- ry|_ Glo- ry|glo- ry|in ex-|cel- sis|_ De-|o _ _|
w: ||||||||
 G,,2) | z4 C,C, | C,4 C,C,- | C,4 G,,G,, | G,,4 G,,G,,- | G,,4 D,D, | D,4 D,D,- | D,4 G,2- | %16
w: _|Glo- ri-|a glo- ry|_ Glo- ri-|a glo- ry|_ Glo- ri-|a glo- ry|_ De-|
w: ||||||||
 G,D, B,,3 G,,- | G,,4 C,C, | C,2- C,2 C,C,- | C,2- C,2 E,E, | E,2- E,2 G,,2- | G,,B,,- B,,2 C,2 | %22
w: * o _ _|_ Glo- ri-|a _ glo- ry|_ _ Glo- ri-|a _ bo-|* nae _ vo-|
w: ||||||
 C,2 C,4- | C, D,3 G,,2- | G,,6 :| z2 z4 | z6 | z6 | z6 | z6 | z6 | z6 | z6 | z6 | z6 | z6 | %36
w: lun- ta-|* tis eh|.||||||||||||
w: ||||||||||||||
 z4 G,,2- | G,, B,,3 C,2 | C,2 C,4- | C, D,2 D, G,,2- | G,,6 | z6 | z6 | E,2 C4 | (E, C2) A,3 | %45
w: 1.give|* You thanks|for Your|* glo- ry eh|.|||3.The sins|o- f the|
w: 2.Lord|* God Lamb|of God|Son of the Fa-|ther.|||||
 G,4 z2 | z6 | F,2 F,4- | F,3 (A,2 G,) | B,4 z2 | z6 | E,2 C4 | (E, C2) A,3 | G,4 z2 | z6 | %55
w: world||mer- cy|_ o- n|us||The sins|o- f the|world||
w: ||||||||||
 F,2 F,4- | F,3 A,2 G, | B,4 z2 | z6 | E,2 E,2 E,2 | E, C2 A,3 | G,2 G,4 | G,,3 B,,3 | %63
w: re- ceive|* our pra-|yers.||at the right|hand of the|Fa- ther.|Have mer-|
w: ||||||||
 C,2 C,2 C,2- | C, D,2 D,3 | G,,6- | G,,2 | z6 | z6 | C,6 | (E, C2) A,2 A, | G,4 z2 | z6 | F,6- | %74
w: cy mer- cy|* on us|eh|_|||eh|are the Ho- ly|One||eh|
w: |||||||||||
 F,3 A,2 G, | G,4 z2 | z6 | C,6 | (E, C2) A,3 | G,4 z2 | G,,3 B,,3 | C,2 C,2 C,2 | C, D,2 D,3 | %83
w: * o- n|us||eh|are the Most|High|Je- sus|Christ with the|Ho- ly Spi-|
w: |||||||||
 G,,4 z2 | z2 z4 | C,6 | ((E, C2)) A,3 | G,4 z2 | z6 | F,6- | F,3 A,2 G, | G,2 G,2 z2 | z6 | C,6 | %94
w: rit||eh|the _ Fa-|ther||eh|* of the|Fa- ther||eh|
w: |||||||||||
 ((((E, C2)))) A,3 | G,4 z2 | G,,3 B,,3 | C,2 C,2 C,2- | C, D,2 D,3 | G,,6- | G,,2 |] %101
w: the _ Fa-|ther|A- men|A- a- a-|* a- a-|men.||
w: |||||||

